X: 100361
T: MR. JAMES GRANT'S HORNPIPE
C: By Wm. Findlay
R: hornpipe
B: K\"ohler's Violin Repository, v.3, 1885 p.243 #2
F: http://www.archive.org/details/klersviolinrepos03rugg
Z: 2012 John Chambers <jc:trillian.mit.edu>
M: C
L: 1/8
K: G
(uB>c) |\
(d>b)g>d (B>g)d>B | (G>F)G>A (B>G)E>C | (B,>D)G>B (d>B)G>B | (A^G)A>B A2B<c |
(d>b)g>d (B>g)d>B | (G>F)G>A (B>G)E>C | (B,>D)G>B (d>c)E>F | G2B2 G2 :||: (uB>A) |
G>d(B>d) g>d(B>d) | A>e(^d>e) g>e(c>A) | (d>b)c>a (B>g)A>f | g>(fe)>(d c)>(DE>F) |
G>d(B>d) g>d(B>d) | A>e(^d>e) g>e(c>A) | d>(ba>g) (3fed (3cBA | G2B2 G2 :|

%%sep 2 1 500

